svg/car_brake_temperature.svg

<svg xmlns="http://www.w3.org/2000/svg" viewBox="0 0 24 24"><path d="M12 10h3V8h-3V7c0-.6-.4-1-1-1s-1 .4-1 1v10.3c-.6.3-1 1-1 1.7 0 1.1.9 2 2 2s2-.9 2-2c0-.7-.4-1.4-1-1.7V14h3v-2h-3zm12 2c0 3.31-1.34 6.31-3.5 8.5l-1.08-1.08c1.9-1.92 3.08-4.52 3.08-7.42 0-2.89-1.18-5.5-3.08-7.42L20.5 3.5C22.66 5.69 24 8.69 24 12M1.5 12c0 2.9 1.18 5.5 3.08 7.42L3.5 20.5C1.34 18.31 0 15.31 0 12s1.34-6.31 3.5-8.5l1.08 1.08C2.68 6.5 1.5 9.11 1.5 12M21 12c0 3.53-2.04 6.58-5 8.05v-2.31A7.01 7.01 0 0 0 19 12c0-3.86-3.14-7-7-7s-7 3.14-7 7a7.01 7.01 0 0 0 3 5.74v2.31C5.04 18.58 3 15.53 3 12a9 9 0 0 1 18 0"/></svg>

<svg xmlns="http://www.w3.org/2000/svg" id="mdi-car-brake-temperature" viewBox="0 0 24 24"><path d="M12 10H15V8H12V7C12 6.4 11.6 6 11 6S10 6.4 10 7V17.3C9.4 17.6 9 18.3 9 19C9 20.1 9.9 21 11 21S13 20.1 13 19C13 18.3 12.6 17.6 12 17.3V14H15V12H12V10M24 12C24 15.31 22.66 18.31 20.5 20.5L19.42 19.42C21.32 17.5 22.5 14.9 22.5 12C22.5 9.11 21.32 6.5 19.42 4.58L20.5 3.5C22.66 5.69 24 8.69 24 12M1.5 12C1.5 14.9 2.68 17.5 4.58 19.42L3.5 20.5C1.34 18.31 0 15.31 0 12S1.34 5.69 3.5 3.5L4.58 4.58C2.68 6.5 1.5 9.11 1.5 12M21 12C21 15.53 18.96 18.58 16 20.05V17.74C17.81 16.47 19 14.37 19 12C19 8.14 15.86 5 12 5S5 8.14 5 12C5 14.37 6.19 16.47 8 17.74V20.05C5.04 18.58 3 15.53 3 12C3 7.03 7.03 3 12 3S21 7.03 21 12Z" /></svg>
